src/assets/arch.svg

<svg width="115" height="115" viewBox="0 0 115 115" fill="none" xmlns="http://www.w3.org/2000/svg">
<g filter="url(#filter0_d_294_29949)">
<path fill-rule="evenodd" clip-rule="evenodd" d="M100.559 4.0438C92.1567 8.26163 91.9685 8.38602 91.9525 9.73508C91.931 11.5909 90.678 14.6674 89.1477 16.6217C88.1447 17.9025 87.8932 18.8884 88.432 19.4272C88.6337 19.6289 87.2012 21.1716 81.6791 26.6996L74.6703 33.716L73.8756 32.8204C71.4682 30.107 68.841 26.3375 67.7412 24.0193L67.3687 23.234L65.68 23.2296C64.3809 23.2262 63.6528 23.0989 62.5254 22.6782C60.2663 21.8353 57.776 20.9926 57.0812 20.8357C56.4815 20.7005 56.5062 20.7491 57.6282 21.9115C59.0181 23.3521 59.6743 24.3169 61.1173 27.042C63.0315 30.6573 65.5378 34.2859 68.2796 37.4118L69.5282 38.8354L63.4108 44.9608C60.0462 48.3299 57.1985 51.0866 57.0825 51.087C56.8712 51.0881 22.1779 16.2927 22.2842 16.1865C22.3154 16.1553 23.2317 16.3092 24.3206 16.5287C28.8885 17.4491 34.3744 17.6108 42.0302 17.0504C47.2986 16.6646 53.5712 16.6194 55.7202 16.9517C58.1621 17.3291 60.3829 17.9404 62.6837 18.8681C64.4896 19.596 64.9636 19.7064 65.9633 19.631C71.081 19.2448 72.8619 12.7358 68.6286 9.8892C67.4772 9.115 64.1338 7.98122 60.9462 7.28408C58.9785 6.85373 58.2038 6.80494 53.3121 6.8041C49.2669 6.80347 47.2221 6.89583 45.3552 7.16388C36.4715 8.43963 36.4706 8.43963 31.2211 8.45513C26.6855 8.46853 25.8209 8.41534 23.7592 7.99735C19.2355 7.07969 15.0847 5.44898 10.7487 2.88574C8.6701 1.65689 8.55807 1.61731 7.38484 1.70233C5.89585 1.80997 4.94855 2.42251 4.39889 3.63293C3.90431 4.7221 3.90431 5.72624 4.39889 6.8152C4.95693 8.04447 8.31476 10.413 12.4804 12.5159C14.1158 13.3416 14.6363 13.8428 34.3618 33.5851L54.5679 53.8088L41.1545 67.2235L27.741 80.6384L23.7525 81.4428C21.1537 81.9667 19.3341 82.4519 18.5302 82.8354C17.5132 83.3204 16.3125 84.3999 11.6944 88.9817C6.18837 94.4447 6.09247 94.5545 6.0931 95.3934C6.09435 96.676 6.70306 97.1388 8.74276 97.4075C9.64671 97.5265 10.4277 97.6624 10.4782 97.7093C10.5287 97.7562 9.09182 99.2835 7.28496 101.103C4.22468 104.186 4 104.465 4 105.192C4 106.256 4.74439 107 5.8079 107C6.5345 107 6.81404 106.775 9.8961 103.715C11.7157 101.908 13.2409 100.471 13.2855 100.521C13.3304 100.572 13.4761 101.363 13.6095 102.28C13.9085 104.334 14.3426 104.905 15.6054 104.907C16.4442 104.907 16.554 104.811 22.0164 99.3048C26.5494 94.7348 27.6799 93.4793 28.15 92.493C28.5204 91.7158 29.0137 89.8541 29.5313 87.2815L30.3364 83.2789L43.7611 69.8529L57.1857 56.4269L77.3966 76.635L97.6074 96.8434L98.6646 98.9375C99.8955 101.376 102.145 104.831 103.166 105.853C104.412 107.098 106.233 107.285 107.659 106.314C108.859 105.498 109.22 104.817 109.22 103.372C109.22 102.186 109.131 101.931 108.144 100.299C105.85 96.5026 104.599 93.5579 103.564 89.5138C102.108 83.8242 102.057 78.7168 103.359 68.7817C104.829 57.555 104.6 51.9433 102.397 45.2864C101.637 42.9896 100.897 41.8196 99.6907 41.0095C97.4112 39.4783 94.7791 39.699 92.8996 41.5787C91.155 43.3236 90.8823 45.6755 92.1133 48.3638C92.9243 50.1354 93.5217 52.1789 93.9495 54.6462C94.3698 57.071 94.2758 64.7507 93.733 72.3418C93.3331 77.933 93.5081 81.9073 94.3415 86.1632C94.612 87.5453 94.8156 88.6959 94.7938 88.7199C94.772 88.7442 86.8907 80.8991 77.2797 71.2868L59.8052 53.8094L65.9729 47.6384L72.1408 41.4671L72.7095 41.9314C73.0223 42.1867 74.0626 43.0367 75.0212 43.8205C77.4248 45.7857 80.8614 48.034 84.0816 49.748C86.2874 50.922 87.1164 51.5029 88.5311 52.8662C90.2608 54.5331 90.2688 54.5378 90.1365 53.8086C90.0142 53.1353 89.663 52.1102 88.2716 48.3638C87.8895 47.3345 87.7634 46.5685 87.755 45.2226L87.7437 43.4425L85.4287 42.186C83.1775 40.9641 80.2137 38.8771 78.2708 37.1454L77.3145 36.2933L84.3111 29.2982C89.8236 23.787 91.3621 22.3576 91.5637 22.5592C92.1029 23.0985 93.0883 22.8466 94.3689 21.8422C96.0428 20.5294 98.2731 19.5215 100.144 19.232C102.942 18.7994 102.385 19.5219 106.932 10.4289C109.55 5.19454 111 2.06671 111 1.65584C111 0.774205 110.181 -0.0146616 109.282 0.000206857C108.819 0.00795521 105.949 1.33837 100.559 4.0438Z" fill="#00AACB"/>
</g>
<defs>
<filter id="filter0_d_294_29949" x="0" y="0" width="115" height="115" filterUnits="userSpaceOnUse" color-interpolation-filters="sRGB">
<feFlood flood-opacity="0" result="BackgroundImageFix"/>
<feColorMatrix in="SourceAlpha" type="matrix" values="0 0 0 0 0 0 0 0 0 0 0 0 0 0 0 0 0 0 127 0" result="hardAlpha"/>
<feOffset dy="4"/>
<feGaussianBlur stdDeviation="2"/>
<feComposite in2="hardAlpha" operator="out"/>
<feColorMatrix type="matrix" values="0 0 0 0 0 0 0 0 0 0 0 0 0 0 0 0 0 0 0.25 0"/>
<feBlend mode="normal" in2="BackgroundImageFix" result="effect1_dropShadow_294_29949"/>
<feBlend mode="normal" in="SourceGraphic" in2="effect1_dropShadow_294_29949" result="shape"/>
</filter>
</defs>
</svg>

<svg xmlns="http://www.w3.org/2000/svg" width="115" height="115" fill="none" viewBox="0 0 115 115"><g filter="url(#a)"><path fill="#00aacb" fill-rule="evenodd" d="M100.559 4.044c-8.402 4.218-8.59 4.342-8.606 5.691-.022 1.856-1.275 4.932-2.805 6.887-1.003 1.28-1.255 2.266-.716 2.805.202.202-1.23 1.745-6.753 7.273l-7.009 7.016-.794-.896c-2.408-2.713-5.035-6.483-6.135-8.8l-.372-.786-1.689-.004c-1.3-.004-2.027-.131-3.155-.552-2.259-.843-4.749-1.685-5.444-1.842-.6-.135-.575-.087.547 1.076 1.39 1.44 2.046 2.405 3.49 5.13 1.913 3.615 4.42 7.244 7.162 10.37l1.248 1.423-6.117 6.126c-3.365 3.369-6.212 6.126-6.328 6.126-.212.001-34.905-34.794-34.799-34.9.031-.032.948.122 2.037.342 4.567.92 10.053 1.082 17.71.521 5.268-.385 11.54-.43 13.69-.098 2.441.377 4.662.988 6.963 1.916 1.806.728 2.28.838 3.28.763 5.117-.386 6.898-6.895 2.665-9.742-1.152-.774-4.495-1.908-7.683-2.605-1.968-.43-2.742-.48-7.634-.48-4.045 0-6.09.092-7.957.36-8.883 1.276-8.884 1.276-14.134 1.291-4.535.014-5.4-.04-7.462-.458-4.524-.917-8.674-2.548-13.01-5.111-2.079-1.23-2.19-1.269-3.364-1.184-1.49.108-2.436.72-2.986 1.93-.495 1.09-.495 2.094 0 3.183.558 1.23 3.916 3.598 8.081 5.7 1.636.827 2.156 1.328 21.882 21.07L54.568 53.81 41.155 67.224 27.74 80.638l-3.988.805c-2.6.524-4.419 1.009-5.223 1.392-1.017.485-2.218 1.565-6.836 6.147-5.506 5.463-5.602 5.573-5.6 6.411 0 1.283.61 1.746 2.649 2.014.904.12 1.685.255 1.735.302s-1.386 1.575-3.193 3.394C4.225 104.186 4 104.465 4 105.192c0 1.064.744 1.808 1.808 1.808.727 0 1.006-.225 4.088-3.285 1.82-1.807 3.345-3.244 3.39-3.194s.19.842.324 1.759c.299 2.054.733 2.625 1.995 2.627.84 0 .949-.096 6.411-5.602 4.533-4.57 5.664-5.826 6.134-6.812.37-.777.864-2.639 1.381-5.212l.805-4.002 13.425-13.426 13.425-13.426 20.21 20.208 20.211 20.208 1.058 2.094c1.23 2.439 3.48 5.894 4.501 6.916 1.246 1.245 3.067 1.432 4.493.461 1.2-.816 1.561-1.497 1.561-2.942 0-1.186-.089-1.441-1.076-3.073-2.294-3.796-3.545-6.741-4.58-10.785-1.456-5.69-1.507-10.797-.205-20.732 1.47-11.227 1.241-16.839-.962-23.496-.76-2.296-1.5-3.466-2.706-4.276-2.28-1.532-4.912-1.311-6.791.569-1.745 1.745-2.018 4.096-.787 6.785.811 1.771 1.409 3.815 1.837 6.282.42 2.425.326 10.105-.217 17.696-.4 5.591-.225 9.565.608 13.821.271 1.382.475 2.533.453 2.557S86.89 80.9 77.28 71.287L59.805 53.809l6.168-6.17 6.168-6.172.569.464 2.311 1.89c2.404 1.965 5.84 4.213 9.06 5.927 2.206 1.174 3.035 1.755 4.45 3.118 1.73 1.667 1.738 1.672 1.605.943-.122-.674-.473-1.699-1.864-5.445-.383-1.03-.509-1.795-.517-3.141l-.011-1.78-2.315-1.257c-2.252-1.222-5.215-3.309-7.158-5.04l-.957-.853 6.997-6.995c5.513-5.511 7.051-6.94 7.253-6.739.539.54 1.524.288 2.805-.717 1.674-1.313 3.904-2.32 5.775-2.61 2.798-.433 2.241.29 6.788-8.803C109.55 5.195 111 2.067 111 1.656c0-.882-.819-1.67-1.718-1.656-.463.008-3.333 1.338-8.723 4.044" clip-rule="evenodd"/></g><defs><filter id="a" width="115" height="115" x="0" y="0" color-interpolation-filters="sRGB" filterUnits="userSpaceOnUse"><feFlood flood-opacity="0" result="BackgroundImageFix"/><feColorMatrix in="SourceAlpha" result="hardAlpha" values="0 0 0 0 0 0 0 0 0 0 0 0 0 0 0 0 0 0 127 0"/><feOffset dy="4"/><feGaussianBlur stdDeviation="2"/><feComposite in2="hardAlpha" operator="out"/><feColorMatrix values="0 0 0 0 0 0 0 0 0 0 0 0 0 0 0 0 0 0 0.25 0"/><feBlend in2="BackgroundImageFix" result="effect1_dropShadow_294_29949"/><feBlend in="SourceGraphic" in2="effect1_dropShadow_294_29949" result="shape"/></filter></defs></svg>
